X:235
T: Graserin und Schreiber (14a), S62f
N: T0123
O: Luxemburg
S: Singendes Volk, Esch-Alzette 1937 posth.]
N: Straen, Frau Witry, 13.1.1933
R: "erzhlende Lieder"]
M: 2/4
L: 1/16
K: F
C2 | F2G2A2B2 | c2c2c2
c2 | d2e2f2d2 | c4z2
c2 | f2c2d2c2 | A2F2F4 |
G2GAB2GG | A2B2c2
f2 | e2d2c2=B2 | c4z2
c2 | f2c2d2c2 | A2F2F4 |
G2GAB2GG | A2B2c2
f2 | e2d2c2=B2 | c4z2

@@@ Tune index: 8289
